X: 8439
T: Crabs In The Skillet
R: jig
M: 6/8
K: Gminor
K: Cmin
G,|:C3 G2B,|C2D E2F|GAG FED|GFE DC=B,|
C3 G2B,|C2D E2G|FDF B=AG|1 FDB, B,=A,B,:|2 FDB, C3||
|:cdc cB=A|BcB B=AG|FG=A B=AG|FDB, B,3|
~c3 cB=A|~B3 B=AG|FG=A B=AG|1 FDB, C3:|2 FDB, B,=A,B,||
|:C3 D3|E3 F3|GAG FED|GFE DC=B,|
C3 D3|E3 G3|FDF B=AG|1 FDB, B,=A,B,:|2 FDB, C2 G,||

